hosted_logos/cloudlink.svg

<?xml version="1.0" encoding="UTF-8"?>
<svg width="900px" height="484px" viewBox="0 0 900 484" version="1.1" xmlns="http://www.w3.org/2000/svg" xmlns:xlink="http://www.w3.org/1999/xlink">
    <title>CloudLink-上下组合</title>
    <defs>
        <polygon id="path-1" points="0 0.147952782 160.767818 0.147952782 160.767818 137.056322 0 137.056322"></polygon>
    </defs>
    <g id="logo组合形式" stroke="none" stroke-width="1" fill="none" fill-rule="evenodd">
        <g id="logo上下组合备份" transform="translate(-2374.000000, -525.000000)">
            <g id="编组-4" transform="translate(0.000000, 446.000000)">
                <g id="CloudLink-上下组合" transform="translate(2374.000000, 79.000000)">
                    <rect id="矩形" x="0" y="0" width="900" height="484" rx="8"></rect>
                    <g id="编组" transform="translate(358.000000, 131.000000)">
                        <polygon id="Fill-1" fill="#4B6EEF" points="113.533388 111.373345 113.533388 129.351771 129.103149 138.340808 144.67291 129.351771 144.67291 111.373345 129.103149 102.384132"></polygon>
                        <polygon id="Fill-2" fill="#F39D2C" points="151.074353 111.523077 151.074353 129.501503 166.644115 138.490539 182.213699 129.501503 182.213699 111.5229 166.644115 102.533864"></polygon>
                        <polygon id="Fill-6" fill="#43B5E8" points="163.547639 97.2822281 163.547639 79.3039788 147.978055 70.3147657 132.408294 79.3039788 132.408294 97.2822281 147.978055 106.271441"></polygon>
                        <g transform="translate(0.000000, 0.029001)">
                            <mask id="mask-2" fill="white">
                                <use xlink:href="#path-1"></use>
                            </mask>
                            <g id="Clip-8"></g>
                            <path d="M63.351901,40.9247569 C66.9160035,29.4692308 77.5147657,21.5443855 89.6461538,21.4655172 C97.4141468,21.4151194 104.896729,24.6596817 110.175597,30.368435 C113.613439,34.0849691 119.054465,34.8984085 123.407781,32.3484527 C126.216092,30.7024757 128.103802,27.9104332 128.587091,24.6872679 C129.062069,21.5231653 128.10221,18.3670203 125.954907,16.0282051 C116.605482,5.84677277 103.320778,0.0591511936 89.5076923,0.148983201 C66.5526083,0.298054819 46.8739169,16.3079576 41.9515473,38.5097259 C41.822458,39.0909814 41.3547303,39.5373121 40.7678161,39.6366932 C17.2312997,43.6296198 -0.155437666,64.1946065 0.000884173298,88.3003537 C0.0845269673,101.173033 5.11494253,113.302122 14.1664014,122.452431 C22.86313,131.244474 34.3458886,136.361185 46.6373121,136.95305 L46.6380195,137.056322 L48.4350133,137.013174 L48.4799293,137.015296 C48.5384615,137.017595 48.5969938,137.01954 48.6560566,137.020424 L50.1474801,137.016357 L50.1469496,136.936428 C63.537931,136.108311 76.4638373,129.7916 84.9658709,119.860566 L132.914412,68.4511936 C137.696729,63.3238727 144.386207,60.3495137 151.265782,60.2922193 L151.389744,60.2915119 C154.581432,60.2708223 160.77153,61.2370469 160.767819,61.2365164 C160.160035,52.482847 154.427763,45.1412025 146.549602,42.1901857 C146.235721,42.0858532 145.920424,41.9838196 145.603714,41.8862069 L145.570469,41.876481 C143.423342,41.2676393 141.193457,40.9661362 138.94412,40.9808134 C132.554377,41.0221927 126.584969,43.5670203 122.110522,48.1732095 L68.0923077,106.668347 L67.4751547,107.391777 C67.4456233,107.423607 67.4162688,107.455438 67.3869142,107.487268 C62.5386384,112.3313 55.5009726,115.369496 48.3206012,115.679664 C48.2760389,115.680018 48.2314766,115.680195 48.1870911,115.680548 C33.2074271,115.227851 21.4148541,103.161892 21.3174182,88.1618921 C21.2312997,74.878603 30.6143236,63.367374 43.6275862,60.7901857 C44.4756852,60.6220159 45.3396994,60.4918656 46.1900973,60.4038019 L46.4259947,60.3843501 C46.7847922,60.3498674 47.1450044,60.3187445 47.5032714,60.2980548 C47.9464191,60.2740053 48.3920424,60.2589744 48.8640141,60.2554377 C51.3939876,60.238992 53.8977896,60.5682582 56.3098143,61.2225464 C58.1893899,61.7323607 60.2258179,61.2480106 61.5676393,59.8365164 C61.6852343,59.7125553 61.797878,59.5841733 61.9052166,59.4511936 C62.7851459,58.3617153 63.1628647,56.9516357 63.0061892,55.5599469 C62.7734748,53.4908046 62.4116711,49.0515473 62.8102564,43.8071618 C62.884527,42.8297966 63.0606543,41.8609195 63.351901,40.9247569 Z" id="Fill-7" fill="#4B6EEF" mask="url(#mask-2)"></path>
                        </g>
                    </g>
                    <path d="M316.882353,301.941176 L316.882353,365 L305.588235,365 L305.588235,301.941176 L316.882353,301.941176 Z M277.548706,305.321882 C284.803294,305.321882 290.591529,308.794824 294.296,312.653647 L294.296,312.653647 L288.276235,319.908235 C285.420706,317.129882 282.102118,315.123294 277.780235,315.123294 C269.136471,315.123294 262.653647,322.532235 262.653647,334.803294 C262.653647,347.228706 268.519059,354.714824 277.548706,354.714824 C282.410824,354.714824 286.269647,352.399529 289.356706,349.080941 L289.356706,349.080941 L295.376471,356.181176 C290.668706,361.660706 284.571765,364.593412 277.162824,364.593412 C262.730824,364.593412 251,354.251765 251,335.189176 C251,316.358118 263.116706,305.321882 277.548706,305.321882 Z M349.863059,319.213647 C360.667765,319.213647 370.623529,327.548706 370.623529,341.980706 C370.623529,356.258353 360.667765,364.593412 349.863059,364.593412 C339.058353,364.593412 329.102588,356.258353 329.102588,341.980706 C329.102588,327.548706 339.058353,319.213647 349.863059,319.213647 Z M392.927529,320.294118 L392.927529,345.839529 C392.927529,352.553882 394.779765,354.869176 398.947294,354.869176 C402.497412,354.869176 404.812706,353.325647 407.745412,349.466824 L407.745412,349.466824 L407.745412,320.294118 L419.090353,320.294118 L419.090353,363.512941 L409.829176,363.512941 L408.980235,357.338824 L408.671529,357.338824 C404.967059,361.737882 400.799529,364.593412 394.856941,364.593412 C385.595765,364.593412 381.582588,358.110588 381.582588,347.305882 L381.582588,347.305882 L381.582588,320.294118 L392.927529,320.294118 Z M470.644235,301.926118 L470.644235,363.512941 L461.460235,363.512941 L460.534118,359.036706 L460.302588,359.036706 C457.138353,362.123765 452.816471,364.593412 448.340235,364.593412 C437.612706,364.593412 430.666824,356.104 430.666824,341.980706 C430.666824,327.857412 439.464941,319.213647 448.803294,319.213647 C453.665412,319.213647 456.675294,321.065882 459.762353,323.921412 L459.762353,323.921412 L459.299294,317.129882 L459.299294,301.926118 L470.644235,301.926118 Z M497.115765,306.402353 L497.115765,353.943059 L520.268706,353.943059 L520.268706,363.512941 L485.693647,363.512941 L485.693647,306.402353 L497.115765,306.402353 Z M542.495529,320.294118 L542.495529,363.512941 L531.227765,363.512941 L531.227765,320.294118 L542.495529,320.294118 Z M581.006588,319.213647 C590.344941,319.213647 594.358118,325.696471 594.358118,336.578353 L594.358118,336.578353 L594.358118,363.512941 L583.013176,363.512941 L583.013176,337.967529 C583.013176,331.330353 581.160941,328.937882 576.916235,328.937882 C573.366118,328.937882 571.128,330.635765 567.886588,333.8 L567.886588,333.8 L567.886588,363.512941 L556.618824,363.512941 L556.618824,320.294118 L565.88,320.294118 L566.651765,326.005176 L566.960471,326.005176 C570.742118,322.300706 575.141176,319.213647 581.006588,319.213647 Z M619.054588,301.926118 L619.054588,338.970824 L619.363294,338.970824 L634.335529,320.294118 L646.683765,320.294118 L631.711529,337.967529 L648.072941,363.512941 L635.801882,363.512941 L625.305882,345.608 L619.054588,352.708235 L619.054588,363.512941 L608.018353,363.512941 L608.018353,301.926118 L619.054588,301.926118 Z M349.863059,328.474824 C343.997647,328.474824 340.679059,333.8 340.679059,341.980706 C340.679059,350.084235 343.997647,355.332235 349.863059,355.332235 C355.728471,355.332235 359.047059,350.084235 359.047059,341.980706 C359.047059,333.8 355.728471,328.474824 349.863059,328.474824 Z M451.272941,328.552 C446.410824,328.552 442.320471,333.182588 442.320471,341.826353 C442.320471,350.778824 445.561882,355.255059 451.272941,355.255059 C454.282824,355.255059 456.829647,354.020235 459.299294,350.778824 L459.299294,350.778824 L459.299294,331.793412 C456.675294,329.400941 453.974118,328.552 451.272941,328.552 Z M536.938824,301 C540.797647,301 543.653176,303.469647 543.653176,307.174118 C543.653176,310.724235 540.797647,313.348235 536.938824,313.348235 C533.002824,313.348235 530.147294,310.724235 530.147294,307.174118 C530.147294,303.469647 533.002824,301 536.938824,301 Z" id="形状结合" fill="#2A2E37" fill-rule="nonzero"></path>
                </g>
            </g>
        </g>
    </g>
</svg>

<svg xmlns="http://www.w3.org/2000/svg" role="img" xmlns:xlink="http://www.w3.org/1999/xlink" viewBox="242.81 123.06 413.14 249.64"><title>CloudLink logo</title><defs><path id="a" d="M0 .148h160.768v136.908H0z"/></defs><g fill="none" fill-rule="evenodd"><rect width="900" height="484" rx="8"/><path fill="#4B6EEF" d="M471.533 242.373v17.979l15.57 8.989 15.57-8.989v-17.979l-15.57-8.989z"/><path fill="#F39D2C" d="M509.074 242.523v17.979l15.57 8.989 15.57-8.989v-17.979l-15.57-8.989z"/><path fill="#43B5E8" d="M521.548 228.282v-17.978l-15.57-8.989-15.57 8.989v17.978l15.57 8.989z"/><g transform="translate(358 131.029)"><mask id="b" fill="#fff"><use xlink:href="#a"/></mask><path fill="#4B6EEF" d="M63.3519 40.92476c3.5641-11.45553 14.16287-19.38037 26.29425-19.45924 7.768-.0504 15.25058 3.19416 20.52945 8.90292 3.43784 3.71653 8.87886 4.52997 13.23218 1.98001 2.80831-1.64597 4.69602-4.43802 5.17931-7.66118.47498-3.1641-.48488-6.32025-2.63218-8.65906C116.60548 5.84677 103.32078.05915 89.50769.14898 66.55261.29805 46.87392 16.30796 41.95155 38.50973c-.1291.58125-.59682 1.02758-1.18373 1.12696C17.2313 43.62962-.15544 64.19461.00088 88.30035c.08365 12.87268 5.11406 25.00177 14.16552 34.15208 8.69673 8.79204 20.17949 13.90875 32.47091 14.50062l.0007.10327 1.797-.04315.04492.00213c.05853.0023.11706.00424.17613.00512l1.49142-.00406-.00053-.07993c13.39098-.82812 26.31689-7.14483 34.81892-17.07586l47.94854-51.40938c4.78232-5.12732 11.4718-8.10168 18.35137-8.15897l.12396-.0007c3.1917-.0207 9.38179.94553 9.37808.945-.60779-8.75367-6.34006-16.09532-14.21822-19.04633-.31388-.10434-.62918-.20637-.94589-.30398l-.03324-.00973c-2.14713-.60884-4.37701-.91034-6.62635-.89567-6.38974.04138-12.35915 2.58621-16.8336 7.1924l-54.01821 58.49514-.61716.72343c-.02953.03183-.05888.06366-.08824.09549-4.84827 4.84403-11.88594 7.88223-19.0663 8.1924-.04457.00035-.08913.00052-.13352.00088-14.97966-.4527-26.77224-12.51866-26.86967-27.51866-.08612-13.28329 9.2969-24.79452 22.31017-27.3717.8481-.16817 1.7121-.29832 2.5625-.38639l.2359-.01945c.3588-.03448.71901-.0656 1.07728-.0863.44315-.02404.88877-.03908 1.36074-.04261a27.74846 27.74846 0 0 1 7.4458.9671c1.87958.50982 3.916.02547 5.25783-1.38602a6.40762 6.40762 0 0 0 .33758-.38533c.87993-1.08947 1.25764-2.49955 1.10097-3.89124-.23272-2.06915-.59452-6.5084-.19593-11.75279.07427-.97736.2504-1.94624.54164-2.8824z" mask="url(#b)"/></g><path fill="#2A2E37" fill-rule="nonzero" d="M316.88235 301.94118V365h-11.29411v-63.05882h11.29411zm-39.33364 3.3807c7.25458 0 13.04282 3.47294 16.74729 7.33177l-6.01977 7.25458c-2.85552-2.77835-6.17411-4.78494-10.496-4.78494-8.64376 0-15.12658 7.40895-15.12658 19.68 0 12.42542 5.8654 19.91153 14.89506 19.91153 4.86211 0 8.72094-2.3153 11.808-5.63388l6.01976 7.10024c-4.70776 5.47953-10.8047 8.41223-18.21365 8.41223-14.432 0-26.16282-10.34165-26.16282-29.40423 0-18.83106 12.1167-29.8673 26.5487-29.8673zm72.31435 13.89177c10.8047 0 20.76047 8.33506 20.76047 22.76706 0 14.27764-9.95577 22.6127-20.76047 22.6127-10.8047 0-20.76047-8.33506-20.76047-22.6127 0-14.432 9.95576-22.76706 20.76047-22.76706zm43.06447 1.08047v25.5454c0 6.71436 1.85224 9.02966 6.01976 9.02966 3.55012 0 5.86542-1.54353 8.79812-5.40236v-29.1727h11.34494v43.21882h-9.26117l-.84895-6.17412h-.3087c-3.70447 4.39906-7.872 7.2546-13.81459 7.2546-9.26118 0-13.27435-6.48283-13.27435-17.28754v-27.01176h11.34494zm77.7167-18.368v61.58682h-9.184l-.92611-4.47623h-.23153c-3.16424 3.08705-7.48612 5.5567-11.96236 5.5567-10.72752 0-17.6734-8.48941-17.6734-22.6127 0-14.1233 8.79811-22.76706 18.13646-22.76706 4.86212 0 7.872 1.85223 10.95906 4.70776l-.46306-6.79153v-15.20376h11.34494zm26.47154 4.47623v47.5407h23.15294v9.5699h-34.57506v-57.1106h11.42212zm45.37976 13.89177v43.21882h-11.26777v-43.21882h11.26777zm38.51106-1.08047c9.33835 0 13.35153 6.48282 13.35153 17.3647v26.9346h-11.34494v-25.54542c0-6.63718-1.85224-9.02965-6.09695-9.02965-3.55011 0-5.78823 1.69788-9.02964 4.86212v29.71294h-11.26777v-43.21882H565.88l.77176 5.71106h.30871c3.78165-3.70447 8.1807-6.79153 14.04612-6.79153zm38.048-17.28753v37.0447h.3087l14.97224-18.6767h12.34824l-14.97224 17.6734 16.36141 25.54542h-12.27106l-10.496-17.90494-6.2513 7.10023v10.80471h-11.03623v-61.58682h11.03624zm-269.19153 26.5487c-5.86541 0-9.184 5.32518-9.184 13.50589 0 8.10352 3.31859 13.35153 9.184 13.35153 5.86541 0 9.184-5.248 9.184-13.35153 0-8.18071-3.31859-13.50589-9.184-13.50589zm101.40988.07718c-4.86212 0-8.95247 4.63059-8.95247 13.27435 0 8.95247 3.24141 13.4287 8.95247 13.4287 3.00988 0 5.5567-1.23481 8.02635-4.47623v-18.9854c-2.624-2.39248-5.32517-3.24142-8.02635-3.24142zM536.93882 301c3.85883 0 6.71436 2.46965 6.71436 6.17412 0 3.55012-2.85553 6.17411-6.71436 6.17411-3.936 0-6.79153-2.624-6.79153-6.17411 0-3.70447 2.85553-6.17412 6.79153-6.17412z"/></g></svg>
